X: 572
T: Dusty Windowsills
B: good tune book
B: tunes
M:6/8
R: jig
Q: 3/8=100
K:Adorian
V:1 
|:"Am"A2B cBA|"Am"eAB cBA|"G"G3 EGG|"G"DGG EFG|
 "Am"A2B cBA|"Am"e2d efg|"G"age dBG|"G"ABA "Am"A3:|
 |:"Am"a3 age|"G"dB/c/d g3|"G"gag "C"gfe|"G"dBA GFG|
 "C"EGG "G"DGG|"C"EGG "Am"ABc|"G"Bed BAG|"G"ABA "Am"A3:|
 |:"Am"A3 gAf|"Am"A3 "Em"ged|"G"G3 eGd|"G"G3 "Em"edB|
 "Am"A3 gAf|"Am"A3 "Em"efg|"Am"age "G"dBG|"Am"ABA A3:|
% abcbook-tune_id 63dce333226f8504b0c5d1f9
% abcbook-tune_composer_id 
% abcbook-link-0 https://www.youtube.com/watch?v=Whv_IwDAb6A
% abcbook-link-title-0 Dusty Windowsills
% abcbook-boost 0
% abcbook-difficulty 0
% abcbook-tags good tune book
% abcbook-tablature 
% abcbook-transpose 
% abcbook-tuning 
% abcbook-lastupdated 1675427821934
% abcbook-soundfonts 
% abcbook-repeats 1


